public/icons/cadCAD.svg

<svg width="47" height="35" viewBox="0 0 47 35" fill="none" xmlns="http://www.w3.org/2000/svg">
<path fill-rule="evenodd" clip-rule="evenodd" d="M45.3157 17.3077C45.3275 17.3251 45.3337 17.3449 45.3337 17.3651C45.3337 17.3852 45.3275 17.405 45.3157 17.4224L41.5024 23.1277C41.4909 23.1451 41.4742 23.1596 41.454 23.1696C41.4339 23.1797 41.411 23.185 41.3877 23.1851L38.9655 23.1831L37.4839 25.4L39.4906 25.4014C39.7093 25.4014 39.846 25.6059 39.7369 25.7698L35.065 32.7592C35.0403 32.7965 35.0045 32.8275 34.9612 32.8491C34.918 32.8707 34.8688 32.8821 34.8188 32.8821C34.7687 32.8821 34.7196 32.8707 34.6763 32.8491C34.6331 32.8275 34.5972 32.7965 34.5725 32.7592L30.3218 26.4054C30.2969 26.3681 30.2839 26.3259 30.2839 26.2829C30.2839 26.2399 30.2969 26.1978 30.3218 26.1604L33.9259 20.7686L33.4761 20.0959C33.4745 20.0934 33.4721 20.0913 33.4693 20.0898C33.4664 20.0884 33.4631 20.0876 33.4598 20.0876C33.4565 20.0876 33.4531 20.0884 33.4503 20.0898C33.4474 20.0913 33.445 20.0934 33.4435 20.0959L30.0198 25.2172C29.9952 25.2546 29.9593 25.2857 29.916 25.3074C29.8726 25.329 29.8234 25.3404 29.7733 25.3404C29.7231 25.3404 29.6739 25.329 29.6306 25.3074C29.5873 25.2857 29.5515 25.2546 29.5267 25.2172L24.3089 17.4171C24.2972 17.3997 24.2911 17.3799 24.2911 17.3598C24.2911 17.3396 24.2972 17.3198 24.3089 17.3024L29.4981 9.53848C29.5228 9.50121 29.5586 9.4702 29.6019 9.4486C29.6452 9.42704 29.6943 9.41566 29.7443 9.41566C29.7944 9.41566 29.8435 9.42704 29.8868 9.4486C29.93 9.4702 29.9659 9.50121 29.9906 9.53848L38.9655 22.9541L41.1577 22.956L40.6809 22.2438L39.6301 22.2428C39.5801 22.2428 39.531 22.2315 39.4878 22.21C39.4445 22.1885 39.4086 22.1575 39.3838 22.1203L30.315 8.56294C30.29 8.52561 30.2769 8.48327 30.2769 8.44021C30.2769 8.39715 30.29 8.3548 30.315 8.31748L34.5601 1.96556C34.5849 1.92816 34.6207 1.89704 34.664 1.87539C34.7073 1.85375 34.7565 1.84234 34.8067 1.84234C34.8568 1.84234 34.906 1.85375 34.9494 1.87539C34.9927 1.89704 35.0285 1.92816 35.0532 1.96556L45.3157 17.3077ZM40.9109 22.1295L44.0135 17.4827L44.0152 17.4798H44.971L41.3877 22.8422L40.9109 22.1295ZM44.971 17.2508H44.0219C44.0193 17.2464 44.0165 17.242 44.0135 17.2377L34.3324 2.7651L34.7901 2.08033C34.7918 2.07783 34.7942 2.07575 34.7971 2.0743C34.8 2.07286 34.8033 2.07209 34.8067 2.07209C34.8101 2.07209 34.8134 2.07286 34.8163 2.0743C34.8192 2.07575 34.8216 2.07783 34.8233 2.08033L44.9704 17.2503L44.971 17.2508ZM34.1795 2.99464L30.545 8.43225C30.5433 8.43476 30.5424 8.43756 30.5424 8.44045C30.5424 8.44334 30.5433 8.44614 30.545 8.44865L35.823 16.3389L43.1071 16.3408L34.1795 2.99464ZM43.26 16.5699L35.9759 16.5679L36.4313 17.2488L43.716 17.2508L43.2606 16.5699H43.26ZM43.7099 17.4798L36.5848 17.4779L37.0403 18.1588L43.255 18.1603L43.7093 17.4798H43.7099ZM43.102 18.3893L40.6809 22.0152L39.6306 22.0142C39.6272 22.0143 39.6239 22.0135 39.6209 22.0121C39.6179 22.0107 39.6154 22.0085 39.6138 22.006L37.1932 18.3879L43.102 18.3893ZM38.7355 23.0693L29.7618 9.65374C29.7601 9.65113 29.7577 9.64891 29.7547 9.64737C29.7518 9.64588 29.7484 9.64506 29.7449 9.64506C29.7414 9.64506 29.738 9.64588 29.7351 9.64737C29.7321 9.64891 29.7297 9.65113 29.728 9.65374L28.2633 11.8459L31.8849 17.2594C31.8966 17.2769 31.9027 17.2967 31.9027 17.3168C31.9027 17.337 31.8966 17.3568 31.8849 17.3742L28.2375 22.8306L29.7573 25.1029C29.759 25.1054 29.7614 25.1075 29.7643 25.1089C29.7672 25.1104 29.7705 25.1111 29.7739 25.1111C29.7772 25.1111 29.7805 25.1104 29.7835 25.1089C29.7863 25.1075 29.7888 25.1054 29.7904 25.1029L33.2135 19.9816C33.2382 19.9444 33.2741 19.9133 33.3174 19.8917C33.3606 19.8702 33.4097 19.8588 33.4598 19.8588C33.5098 19.8588 33.559 19.8702 33.6022 19.8917C33.6455 19.9133 33.6813 19.9444 33.706 19.9816L37.2539 25.2852L38.7355 23.0689V23.0693ZM28.084 22.6021L30.902 18.3859L25.2625 18.3845L28.084 22.6021ZM25.1096 18.1559L31.055 18.1569L31.5391 17.4326L24.6536 17.4736L25.1096 18.1554V18.1559ZM24.6553 17.2445L31.5413 17.2035L31.1151 16.567L25.109 16.565L24.6553 17.2445ZM25.2625 16.3365L30.9616 16.3379L28.1104 12.075L25.262 16.3365H25.2625ZM34.0788 20.9982L37.1392 25.5721C37.1628 25.6078 37.2067 25.6295 37.2539 25.63H38.2677L34.1918 31.7331L30.5523 26.2911C30.5506 26.2886 30.5497 26.2858 30.5497 26.2829C30.5497 26.28 30.5506 26.2772 30.5523 26.2747L34.0794 20.9977L34.0788 20.9982ZM34.3459 31.9626L34.8025 32.645C34.8041 32.6474 34.8066 32.6493 34.8094 32.6507C34.8123 32.6521 34.8155 32.6528 34.8188 32.6528C34.822 32.6528 34.8252 32.6521 34.8281 32.6507C34.831 32.6493 34.8334 32.6474 34.8351 32.645L39.5069 25.6555C39.5085 25.653 39.5092 25.6502 39.5092 25.6474C39.5091 25.6446 39.5082 25.6418 39.5065 25.6394C39.5047 25.637 39.5024 25.6349 39.4995 25.6335C39.4966 25.6321 39.4934 25.6314 39.4901 25.6314L38.5736 25.6305L34.3453 31.9626H34.3459ZM12.2186 33.9151C12.1952 33.9151 12.1722 33.9098 12.1519 33.8998C12.1317 33.8897 12.1149 33.8752 12.1033 33.8578L8.29227 28.1597C8.28069 28.1423 8.27462 28.1227 8.27462 28.1026C8.27462 28.0825 8.28069 28.0629 8.29227 28.0455L9.49158 26.2516L7.95491 23.9542L6.96364 25.4376C6.9389 25.4748 6.90308 25.5058 6.85979 25.5275C6.81655 25.549 6.76741 25.5604 6.71737 25.5604C6.66733 25.5604 6.61818 25.549 6.57495 25.5275C6.53165 25.5058 6.49584 25.4748 6.4711 25.4376L1.84029 18.5157C1.81514 18.4784 1.80186 18.4361 1.80179 18.3931C1.80171 18.35 1.81482 18.3077 1.83983 18.2704C1.86484 18.2331 1.90085 18.2021 1.94426 18.1804C1.98766 18.1588 2.03693 18.1474 2.08712 18.1472L10.9383 18.1501C11.0395 18.1501 11.1334 18.1969 11.1846 18.2726L14.7583 23.6157H15.5275C15.5308 23.6157 15.534 23.615 15.5369 23.6136C15.5398 23.6122 15.5422 23.6102 15.5439 23.6077C15.5456 23.6053 15.5465 23.6025 15.5466 23.5997C15.5467 23.5969 15.5459 23.5941 15.5444 23.5916L12.1505 18.5185C12.1256 18.4813 12.1124 18.4392 12.1123 18.3962C12.1123 18.3533 12.1254 18.3111 12.1504 18.2739C12.1753 18.2366 12.2111 18.2056 12.2544 18.184C12.2976 18.1624 12.3468 18.1508 12.3968 18.1506L22.6019 18.1535C22.6486 18.1535 22.6924 18.1757 22.716 18.2114L27.9338 26.0105C27.9589 26.0477 27.972 26.0899 27.972 26.1329C27.972 26.1759 27.9589 26.2181 27.9339 26.2553C27.9089 26.2926 27.8729 26.3236 27.8296 26.3452C27.7863 26.3668 27.7371 26.3782 27.687 26.3784L9.72098 26.3659L8.63694 27.9881H9.58716L10.1236 27.1856C10.1484 27.1483 10.1843 27.1172 10.2276 27.0956C10.271 27.074 10.3202 27.0627 10.3704 27.0627L28.4821 27.0757C28.5833 27.0757 28.6777 27.1225 28.7283 27.1987L32.979 33.553C33.0042 33.5902 33.0174 33.6325 33.0176 33.6754C33.0177 33.7184 33.0046 33.7607 32.9797 33.7981C32.9547 33.8353 32.9188 33.8664 32.8754 33.888C32.8321 33.9097 32.7829 33.9212 32.7328 33.9214L12.2186 33.9151ZM9.58716 28.2176H8.63694L12.2186 33.5713L12.6937 32.8605C12.6905 32.8566 12.6874 32.8526 12.6847 32.8485L9.58716 28.2176ZM12.9259 32.9709H12.9309L32.2925 32.9849L32.7496 33.6678C32.7512 33.6703 32.7519 33.6731 32.7519 33.6759C32.7518 33.6787 32.7509 33.6815 32.7492 33.6839C32.7474 33.6863 32.7451 33.6884 32.7422 33.6898C32.7393 33.6912 32.7361 33.6919 32.7328 33.6919L12.448 33.6861L12.9259 32.9709ZM32.139 32.7559L14.2956 32.7428L17.9357 27.297L28.4821 27.3048C28.4888 27.3048 28.495 27.3081 28.4984 27.313L32.139 32.7559ZM17.6292 27.297L16.7195 27.2966L13.0794 32.7419L13.9891 32.7424L17.6292 27.297ZM16.4131 27.2961L12.8466 32.6324L12.3912 31.9515L15.5033 27.2961L16.4131 27.2966V27.2961ZM15.1969 27.2951L10.3704 27.2917C10.367 27.2917 10.3637 27.2924 10.3607 27.2939C10.3577 27.2953 10.3552 27.2974 10.3535 27.2999L9.81713 28.1033L12.2377 31.722L15.1969 27.2951ZM9.72098 26.1368L27.687 26.1493C27.6903 26.1493 27.6935 26.1486 27.6965 26.1472C27.6993 26.1458 27.7017 26.1438 27.7034 26.1414C27.7051 26.139 27.706 26.1362 27.7061 26.1334C27.7062 26.1305 27.7055 26.1277 27.7039 26.1252L26.1835 23.853L19.0073 23.8477C18.984 23.8476 18.9612 23.8422 18.941 23.8322C18.9209 23.8221 18.9042 23.8076 18.8926 23.7903L15.2739 18.3806L12.3968 18.3797C12.3935 18.3797 12.3903 18.3804 12.3874 18.3818C12.3845 18.3832 12.3821 18.3852 12.3804 18.3876C12.3787 18.39 12.3778 18.3928 12.3777 18.3956C12.3776 18.3985 12.3784 18.4013 12.3799 18.4038L15.7738 23.4768C15.7989 23.514 15.8122 23.5563 15.8123 23.5993C15.8124 23.6423 15.7993 23.6846 15.7744 23.7219C15.7494 23.7592 15.7135 23.7902 15.6701 23.8119C15.6268 23.8335 15.5776 23.8451 15.5275 23.8452L8.18431 23.8399L9.72098 26.1368ZM15.5809 18.3806L18.3697 22.5495L21.1557 18.3826L15.5809 18.3806ZM21.4622 18.3826L18.5232 22.779L19.0068 23.5024L22.3742 18.3826H21.4622ZM22.603 18.4988L19.2356 23.6186L20.088 23.6196L23.0568 19.1782L22.6025 18.4988H22.603ZM23.2103 19.4073L20.3939 23.6196L26.0306 23.6234L23.2097 19.4073H23.2103ZM14.4519 23.6147L10.9546 18.3869C10.9529 18.3844 10.9504 18.3823 10.9474 18.3808C10.9445 18.3794 10.9412 18.3787 10.9377 18.3787L3.31061 18.3763L7.34542 24.4075L7.84021 23.6673C7.85185 23.65 7.86855 23.6357 7.88868 23.6257C7.90881 23.6157 7.93163 23.6104 7.95491 23.6104L14.4519 23.6152V23.6147ZM7.19192 24.6375L3.00418 18.3763H2.08656C2.08331 18.3764 2.08013 18.3772 2.07734 18.3786C2.07454 18.38 2.07222 18.382 2.07058 18.3844C2.06895 18.3869 2.06806 18.3896 2.06801 18.3924C2.06795 18.3952 2.06873 18.3979 2.07026 18.4004L6.70106 25.3228C6.70275 25.3252 6.70517 25.3272 6.70803 25.3285C6.7109 25.3299 6.71411 25.3307 6.71737 25.3307C6.72063 25.3307 6.72383 25.3299 6.7267 25.3285C6.72957 25.3272 6.73199 25.3252 6.73367 25.3228L7.19192 24.6366V24.6375ZM22.7149 16.5057C22.7034 16.5231 22.6867 16.5376 22.6666 16.5476C22.6464 16.5577 22.6235 16.563 22.6002 16.5631L12.3951 16.5597C12.345 16.5595 12.2958 16.5481 12.2525 16.5265C12.2092 16.5049 12.1732 16.4739 12.1482 16.4367C12.1233 16.3994 12.1101 16.3572 12.1101 16.3142C12.1101 16.2713 12.1233 16.229 12.1483 16.1918L21.1439 2.73279L20.0082 1.03535C20.0065 1.03272 20.0041 1.03053 20.0011 1.029C19.9982 1.02747 19.9948 1.02666 19.9913 1.02666L12.2939 1.02425C12.2905 1.02421 12.2872 1.02494 12.2842 1.02638C12.2812 1.02782 12.2787 1.02992 12.277 1.03245L2.07082 16.3032C2.06929 16.3056 2.06851 16.3084 2.06857 16.3112C2.06862 16.314 2.06951 16.3167 2.07114 16.3191C2.07278 16.3216 2.0751 16.3236 2.0779 16.325C2.0807 16.3264 2.08387 16.3272 2.08712 16.3273L2.9755 16.3278L12.6993 1.76206C12.7109 1.74463 12.7277 1.73014 12.7479 1.72006C12.7682 1.70998 12.7912 1.70467 12.8146 1.70468L19.4926 1.7095C19.5938 1.7095 19.6877 1.75628 19.7388 1.83247L20.2589 2.6103C20.3095 2.6865 20.3095 2.77957 20.2589 2.85576L11.1823 16.4368C11.1575 16.4739 11.1216 16.5049 11.0783 16.5264C11.0351 16.5479 10.986 16.5593 10.936 16.5593L2.08712 16.5568C2.03698 16.5566 1.98778 16.5451 1.94445 16.5235C1.90113 16.5018 1.86519 16.4708 1.84026 16.4335C1.81531 16.3962 1.80224 16.3539 1.80235 16.3109C1.80245 16.2679 1.81573 16.2256 1.84085 16.1884L12.0471 0.918164C12.0719 0.880873 12.1077 0.849856 12.1509 0.828262C12.1942 0.806667 12.2433 0.795263 12.2933 0.795195L19.9919 0.797606C20.0931 0.797606 20.187 0.844383 20.2381 0.920575L21.3739 2.61802L24.2836 2.61995L23.3115 1.16699C23.2863 1.12978 23.2731 1.08755 23.273 1.04454C23.2728 1.00153 23.2859 0.959254 23.3109 0.921944C23.3358 0.884634 23.3717 0.853598 23.4151 0.831946C23.4584 0.810294 23.5076 0.798783 23.5577 0.798571L32.7193 0.801464C32.938 0.801464 33.0746 1.00593 32.9655 1.16989L28.7199 7.5218C28.695 7.55898 28.6592 7.58994 28.6159 7.61145C28.5727 7.63296 28.5236 7.64429 28.4736 7.64429L21.3863 7.64236L20.914 8.34834C20.9124 8.35085 20.9117 8.35365 20.9117 8.35649C20.9118 8.35929 20.9127 8.36209 20.9144 8.3645C20.9162 8.36691 20.9185 8.36893 20.9215 8.37033C20.9243 8.37173 20.9275 8.37245 20.9308 8.37245L27.6572 8.37487C27.8765 8.37487 28.0131 8.57933 27.9035 8.74281L22.7149 16.5057ZM21.5398 7.4133L28.4736 7.41523C28.477 7.41528 28.4804 7.41456 28.4833 7.41311C28.4863 7.41166 28.4888 7.40959 28.4905 7.40703L32.1396 1.9482L24.1363 1.94242L24.6283 2.67782C24.6399 2.69522 24.6459 2.71492 24.6459 2.73496C24.6459 2.755 24.6399 2.7747 24.6283 2.7921L21.5392 7.41378L21.5398 7.4133ZM23.9834 1.71288L32.292 1.71866L32.7356 1.05512C32.7372 1.05262 32.7379 1.04982 32.7378 1.04699C32.7377 1.04416 32.7368 1.04139 32.7351 1.03897C32.7334 1.03654 32.731 1.03453 32.7282 1.03313C32.7252 1.03174 32.722 1.03101 32.7187 1.03101L23.5583 1.02715C23.555 1.02719 23.5517 1.02797 23.5489 1.02942C23.546 1.03088 23.5436 1.03295 23.5419 1.03544C23.5403 1.03793 23.5394 1.04074 23.5394 1.0436C23.5395 1.04646 23.5403 1.04926 23.542 1.05174L23.9839 1.71239L23.9834 1.71288ZM24.2836 2.84901L20.6846 8.23357C20.6596 8.2708 20.6465 8.31295 20.6464 8.35591C20.6463 8.39883 20.6594 8.44103 20.6844 8.47826C20.7093 8.51548 20.7452 8.54649 20.7884 8.5681C20.8317 8.58975 20.8808 8.60127 20.9308 8.60151L27.6572 8.60392C27.6718 8.60392 27.6808 8.61743 27.6741 8.62804L26.2054 10.8251L20.3258 10.8429H20.3242L18.9393 10.8641C18.9155 10.8645 18.8921 10.8704 18.8719 10.8812C18.8516 10.892 18.8351 10.9072 18.824 10.9254L18.1516 12.0234L15.2722 16.3316L12.3945 16.3307C12.3913 16.3306 12.3881 16.3298 12.3853 16.3284C12.3825 16.327 12.3802 16.3249 12.3786 16.3225C12.377 16.3201 12.3761 16.3174 12.376 16.3146C12.3759 16.3118 12.3767 16.309 12.3782 16.3066L21.3739 2.84756L24.2836 2.84901ZM15.5781 16.3321L20.9606 16.3336L18.2674 12.3079L15.5787 16.3316L15.5781 16.3321ZM18.4192 12.076L21.2671 16.3336H22.3702L18.9466 11.2152L18.4192 12.076ZM19.1693 11.0898L22.6002 16.2193L23.1462 15.4019L20.2505 11.0729L19.1693 11.0898ZM20.5558 11.071L26.0525 11.0546L23.2997 15.1728L20.5558 11.071ZM3.28137 16.3283L10.936 16.3307C10.9395 16.3307 10.9428 16.33 10.9458 16.3286C10.9487 16.3271 10.9512 16.325 10.9529 16.3225L15.9509 8.84456L12.1106 3.10411L3.28137 16.3278V16.3283ZM12.2635 2.87408L16.1038 8.61502L16.6548 7.78992L12.8146 2.04851L12.2635 2.87408ZM13.0445 1.93374L14.137 1.9347L17.3543 6.74397L16.8083 7.56086L13.0451 1.93374H13.0445ZM17.5072 6.51491L20.0295 2.74147C20.0312 2.73898 20.0321 2.73615 20.0321 2.73327C20.0321 2.73039 20.0312 2.72757 20.0295 2.72507L19.5089 1.94676C19.5072 1.94423 19.5047 1.94213 19.5017 1.94069C19.4988 1.93925 19.4954 1.93851 19.492 1.93856L14.4451 1.93518L17.5083 6.51443L17.5072 6.51491ZM46.3733 17.3C46.3866 17.3199 46.3935 17.3425 46.3935 17.3655C46.3935 17.3885 46.3866 17.4112 46.3733 17.4311L34.8205 34.7166L11.699 34.7094C11.6724 34.7093 11.6463 34.7032 11.6233 34.6916C11.6003 34.6801 11.5812 34.6636 11.568 34.6438L0 17.3511L11.5534 0.0655831C11.5667 0.0456879 11.5858 0.029147 11.6089 0.0176315C11.632 0.00611611 11.6583 3.4081e-05 11.685 0L34.8058 0.00723343L46.3739 17.3H46.3733ZM34.7294 0.351063L46.1107 17.3651L34.744 34.3728L23.3626 17.3583L34.7294 0.351063ZM34.4994 0.236292L11.7502 0.229059L0.382902 17.2368L23.1321 17.2435L34.4994 0.236292ZM23.1321 17.4726L34.514 34.4876L11.7648 34.4803L0.383464 17.4658L23.1327 17.4726H23.1321Z" fill="url(#paint0_linear_354_2992)"/>
<defs>
<linearGradient id="paint0_linear_354_2992" x1="0.801225" y1="34.5483" x2="46.9772" y2="34.5483" gradientUnits="userSpaceOnUse">
<stop stop-color="#16ABF9"/>
<stop offset="1" stop-color="#16F7F9"/>
</linearGradient>
</defs>
</svg>

<svg width="47" height="35" fill="none" xmlns="http://www.w3.org/2000/svg"><path fill-rule="evenodd" clip-rule="evenodd" d="M45.316 17.308a.102.102 0 0 1 .018.057c0 .02-.007.04-.018.057l-3.814 5.706a.123.123 0 0 1-.048.042.15.15 0 0 1-.066.015l-2.422-.002-1.482 2.217 2.007.001c.218 0 .355.205.246.369l-4.672 6.99a.266.266 0 0 1-.104.09.32.32 0 0 1-.285 0 .267.267 0 0 1-.104-.09l-4.25-6.355a.22.22 0 0 1 0-.245l3.604-5.391-.45-.673a.018.018 0 0 0-.007-.006.022.022 0 0 0-.019 0 .017.017 0 0 0-.007.006l-3.423 5.121a.266.266 0 0 1-.104.09.321.321 0 0 1-.285 0 .268.268 0 0 1-.104-.09l-5.218-7.8a.102.102 0 0 1 0-.115l5.19-7.764a.266.266 0 0 1 .103-.09.32.32 0 0 1 .285 0c.043.022.079.053.104.09l8.974 13.416 2.193.002-.477-.712-1.05-.001a.32.32 0 0 1-.143-.033.267.267 0 0 1-.104-.09L30.315 8.563a.22.22 0 0 1-.038-.123.22.22 0 0 1 .038-.123l4.245-6.351a.267.267 0 0 1 .104-.09.32.32 0 0 1 .285 0c.044.021.08.052.104.09l10.263 15.342ZM40.91 22.13l3.102-4.647.002-.003h.956l-3.583 5.362-.477-.712Zm4.06-4.88h-.95a.207.207 0 0 0-.008-.012l-9.68-14.473.457-.685a.018.018 0 0 1 .007-.006.022.022 0 0 1 .02 0 .018.018 0 0 1 .006.006L44.97 17.25h.001ZM34.18 2.996l-3.635 5.437a.015.015 0 0 0-.003.008l.003.009 5.278 7.89 7.284.002L34.18 2.995Zm9.08 13.575-7.284-.002.455.68 7.285.003-.455-.681h-.001Zm.45.91-7.125-.002.455.68 6.215.002.454-.68Zm-.608.91-2.421 3.625h-1.05c-.004 0-.007-.002-.01-.003a.017.017 0 0 1-.007-.006l-2.42-3.618 5.908.001Zm-4.366 4.68L29.762 9.653a.019.019 0 0 0-.007-.007.022.022 0 0 0-.02 0 .019.019 0 0 0-.007.007l-1.465 2.192 3.622 5.413a.103.103 0 0 1 0 .115l-3.647 5.457 1.52 2.272a.018.018 0 0 0 .006.006.02.02 0 0 0 .01.002c.003 0 .006 0 .01-.002a.018.018 0 0 0 .006-.006l3.424-5.121a.267.267 0 0 1 .103-.09.32.32 0 0 1 .285 0c.044.021.08.052.104.09l3.548 5.303 1.482-2.216Zm-10.652-.468 2.818-4.216-5.64-.002 2.822 4.218Zm-2.974-4.446h5.945l.484-.723-6.885.04.456.682Zm-.455-.912 6.886-.04-.426-.637-6.006-.002-.454.68Zm.607-.907h5.7l-2.852-4.262-2.848 4.262Zm8.817 4.661 3.06 4.574a.139.139 0 0 0 .115.058h1.014l-4.076 6.103-3.64-5.442a.014.014 0 0 1-.002-.008c0-.003 0-.006.002-.008l3.527-5.277Zm.267 10.965.457.682a.018.018 0 0 0 .006.006.022.022 0 0 0 .02 0 .018.018 0 0 0 .006-.006l4.672-6.99a.015.015 0 0 0 .002-.008.015.015 0 0 0-.002-.008.02.02 0 0 0-.008-.005.022.022 0 0 0-.009-.003h-.916l-4.229 6.332Zm-22.127 1.952a.151.151 0 0 1-.067-.015.125.125 0 0 1-.049-.042l-3.81-5.698a.103.103 0 0 1 0-.114l1.199-1.794-1.537-2.298-.991 1.484a.268.268 0 0 1-.104.09.321.321 0 0 1-.285 0 .268.268 0 0 1-.104-.09l-4.63-6.922a.22.22 0 0 1-.04-.123c0-.043.014-.085.039-.123a.27.27 0 0 1 .104-.09.325.325 0 0 1 .143-.033l8.851.003c.101 0 .195.047.247.123l3.573 5.343h.77l.009-.002a.018.018 0 0 0 .007-.006.015.015 0 0 0 .003-.008c0-.003-.001-.006-.003-.008l-3.394-5.073a.22.22 0 0 1-.038-.123c0-.043.013-.085.038-.122a.268.268 0 0 1 .104-.09.323.323 0 0 1 .143-.033l10.205.003c.047 0 .09.022.114.057l5.218 7.8a.218.218 0 0 1 0 .244.27.27 0 0 1-.104.09.323.323 0 0 1-.143.033l-17.966-.012-1.084 1.622h.95l.537-.802a.267.267 0 0 1 .104-.09.321.321 0 0 1 .142-.033l18.112.013c.101 0 .196.046.246.123l4.251 6.354a.22.22 0 0 1 .039.122.22.22 0 0 1-.038.123.27.27 0 0 1-.105.09.322.322 0 0 1-.142.033l-20.514-.006Zm-2.632-5.697h-.95l3.582 5.353.475-.71a.144.144 0 0 1-.01-.012l-3.097-4.631Zm3.339 4.753h.005l19.361.014.458.683a.015.015 0 0 1 .002.008.015.015 0 0 1-.003.008.02.02 0 0 1-.007.006.022.022 0 0 1-.01.002l-20.284-.006.478-.715Zm19.213-.215-17.843-.013 3.64-5.446 10.546.008a.02.02 0 0 1 .016.008l3.641 5.443Zm-14.51-5.459h-.91l-3.64 5.445h.91l3.64-5.445Zm-1.216 0-3.566 5.335-.456-.68 3.112-4.656h.91Zm-1.216-.002-4.827-.003c-.003 0-.006 0-.01.002a.018.018 0 0 0-.006.006l-.537.803 2.42 3.619 2.96-4.427ZM9.72 26.137l17.966.012c.003 0 .006 0 .01-.002a.019.019 0 0 0 .006-.006.015.015 0 0 0 0-.016l-1.52-2.272-7.176-.005a.151.151 0 0 1-.066-.016.126.126 0 0 1-.048-.042l-3.62-5.41h-2.876c-.004 0-.007 0-.01.002a.018.018 0 0 0-.007.006.015.015 0 0 0 0 .016l3.394 5.073a.22.22 0 0 1 .038.122.22.22 0 0 1-.038.123.27.27 0 0 1-.104.09.322.322 0 0 1-.143.033l-7.343-.005 1.537 2.297Zm5.86-7.756 2.789 4.168 2.786-4.166-5.575-.002Zm5.881.002-2.939 4.396.484.723 3.367-5.12h-.912Zm1.141.116-3.367 5.12h.852l2.969-4.44-.454-.68Zm.607.908-2.816 4.213 5.637.003-2.821-4.216Zm-8.758 4.208-3.497-5.228a.019.019 0 0 0-.008-.006.022.022 0 0 0-.01-.002l-7.626-.003 4.034 6.031.495-.74a.125.125 0 0 1 .049-.041.15.15 0 0 1 .066-.016l6.497.005Zm-7.26 1.023-4.188-6.262h-.917c-.004 0-.007.001-.01.003a.018.018 0 0 0-.006.005.015.015 0 0 0 0 .016l4.63 6.923a.017.017 0 0 0 .007.005.021.021 0 0 0 .019 0 .017.017 0 0 0 .007-.005l.458-.686Zm15.523-8.132a.123.123 0 0 1-.048.042.15.15 0 0 1-.067.015l-10.205-.003c-.05 0-.1-.012-.143-.034a.27.27 0 0 1-.104-.09.22.22 0 0 1-.038-.122.22.22 0 0 1 .038-.122l8.996-13.46-1.136-1.697a.018.018 0 0 0-.007-.006.021.021 0 0 0-.01-.002l-7.697-.003c-.004 0-.007 0-.01.002a.018.018 0 0 0-.007.006L2.071 16.303a.014.014 0 0 0 0 .016.017.017 0 0 0 .007.006.022.022 0 0 0 .01.002h.887L12.7 1.763a.125.125 0 0 1 .049-.042.15.15 0 0 1 .067-.015l6.678.004c.1 0 .195.047.246.123l.52.778c.05.077.05.17 0 .246l-9.077 13.58a.267.267 0 0 1-.104.09.32.32 0 0 1-.142.033l-8.849-.002c-.05 0-.1-.012-.143-.034a.27.27 0 0 1-.104-.09.219.219 0 0 1-.038-.122.22.22 0 0 1 .039-.123L12.047.918a.267.267 0 0 1 .104-.09.321.321 0 0 1 .142-.033l7.699.003c.101 0 .195.046.246.123l1.136 1.697 2.91.002-.973-1.453a.219.219 0 0 1 0-.245.268.268 0 0 1 .104-.09.323.323 0 0 1 .143-.033L32.719.8c.219 0 .356.205.246.369L28.72 7.522a.268.268 0 0 1-.104.09.32.32 0 0 1-.142.032l-7.088-.002-.472.706a.015.015 0 0 0-.002.008c0 .003 0 .006.002.008a.02.02 0 0 0 .016.008l6.727.003c.22 0 .356.204.247.368l-5.19 7.763ZM21.54 7.413l6.934.002c.003 0 .006 0 .01-.002a.018.018 0 0 0 .006-.006l3.65-5.459-8.004-.006.492.736a.103.103 0 0 1 0 .114L21.54 7.414Zm2.443-5.7 8.309.006.444-.664a.014.014 0 0 0 .002-.008.015.015 0 0 0-.003-.008.018.018 0 0 0-.007-.006.022.022 0 0 0-.01-.002l-9.16-.004-.01.002a.018.018 0 0 0-.006.006.015.015 0 0 0-.003.009l.003.008.442.66Zm.3 1.136-3.598 5.385a.218.218 0 0 0 0 .245.27.27 0 0 0 .103.09.323.323 0 0 0 .143.033l6.726.002c.015 0 .024.013.017.024l-1.469 2.197-5.88.018-1.386.021a.149.149 0 0 0-.067.017.123.123 0 0 0-.048.044l-.672 1.098-2.88 4.309-2.877-.001c-.004 0-.007-.001-.01-.003a.017.017 0 0 1-.006-.005.014.014 0 0 1 0-.016l8.995-13.46 2.91.002Zm-8.705 13.483 5.383.002-2.694-4.026-2.688 4.024Zm2.841-4.256 2.848 4.258h1.103l-3.423-5.119-.528.861Zm.75-.986 3.431 5.13.546-.818-2.896-4.33-1.08.018Zm1.387-.019 5.496-.016-2.752 4.118-2.744-4.102ZM3.28 16.328l7.655.003.01-.002a.02.02 0 0 0 .007-.006l4.998-7.478-3.84-5.74-8.83 13.223Zm8.982-13.454 3.84 5.741.552-.825-3.84-5.741-.551.825Zm.781-.94h1.093l3.217 4.81-.546.817-3.763-5.627Zm4.463 4.58 2.522-3.773a.015.015 0 0 0 .003-.008c0-.003 0-.005-.003-.008l-.52-.778a.018.018 0 0 0-.007-.006.021.021 0 0 0-.01-.002l-5.047-.004 3.063 4.58ZM46.373 17.3a.118.118 0 0 1 0 .131L34.821 34.717l-23.122-.008a.17.17 0 0 1-.076-.017.143.143 0 0 1-.055-.048L0 17.35 11.553.066a.143.143 0 0 1 .056-.048.172.172 0 0 1 .076-.018l23.12.007L46.375 17.3ZM34.73.351l11.382 17.014-11.367 17.008-11.381-17.015L34.729.351ZM34.5.236 11.75.23.383 17.237l22.75.007L34.498.236ZM23.132 17.473l11.382 17.015-22.75-.008L.385 17.466l22.749.007Z" fill="url(#a)"/><defs><linearGradient id="a" x1=".801" y1="34.548" x2="46.977" y2="34.548" gradientUnits="userSpaceOnUse"><stop stop-color="#16ABF9"/><stop offset="1" stop-color="#16F7F9"/></linearGradient></defs></svg>
